X: 8
M:3/4
L:1/8
K:D
e>f e2 A>c|ee f2e2|d3 (ABc)||d2c2B2|A4 e>f|
g2f2e2|a3 (ABc)|d2c2B2|A4 (ef)|g2B2c2|d4||



